X: 33248
T: Pull The Knife And Stick It Again
R: jig
M: 6/8
K: Ddorian
A2F|:~D3 FED|CAD CAC|~D3 FED|GAF GEC|
~D3 FED|CAD CDE|FED EDC|1 ~D3 D2A:|2 ~D3 D3||
|:dcA AGE|DCA c2d|dcA AGE|GAB cde|
dcA AGE|DCA CDE|FED EDC|1 ~D3 D2d:|2 ~D3 D2A||

